X:653
M:C|
L:1/8
K:D
|:A|d2fa gfed|cAeA fAeA|1 d2fa gfed|cdec d2d:|2 dbca BgAf|
cdec d2d||

